/* XPM */
static char* pmidi_xpm[] = {
/* columns rows colors chars-per-pixel */
"32 32 21 1 ",
"  c None",
". c #202020",
"X c gray19",
"o c gray25",
"O c #505050",
"+ c #606060",
"@ c gray44",
"# c gray50",
"$ c #E00000",
"% c #FF662B",
"& c #FF763C",
"* c #FF7070",
"= c #00C000",
"- c #70FF70",
"; c #FF864D",
": c #FF965F",
"> c #7070FF",
", c #FF70FF",
"< c #A0A0A0",
"1 c gray69",
"2 c #C0C0C0",
/* pixels */
"@OOOOOOOoooooooooooooooooooooooX",
"O2#@@@@+<1+++++++X+X+&:&:&:&:%O.",
"O#@OOO+<@X1+$+=++++++:&:&:&:%;O.",
"O@@@@++1XX<+O+O++O+O+&:&:&:%;%O.",
"O@@Ooo++1<++O+O++X+X+++++X+XO.O.",
"OOOoooooooooooooooooooooooX.....",
"                                ",
"@OOOOOOOoooooooooooooooooooooooX",
"O2#@@@@+<1+++++++X+X+&:&:&:&:%O.",
"O#@OOO+<@X1+$+=++++++:&:&:&:%;O.",
"O@@@@++1XX<+O+O++O+O+&:&:&:%;%O.",
"O@@Ooo++1<++O+O++X+X+++++X+XO.O.",
"OOOoooooooooooooooooooooooX.....",
"                                ",
"@OOOOOOOoooooooooooooooooooooooX",
"O2#@@@@+<1+++++++X+X+&:&:&:&:%O.",
"O#@OOO+<@X1+$+=++++++:&:&:&:%;O.",
"O@@@@++1XX<+O+O++O+O+&:&:&:%;%O.",
"O@@Ooo++1<++O+O++X+X+++++X+XO.O.",
"OOOoooooooooooooooooooooooX.....",
"                                ",
"  *********  --- >>>>>>>>>  ,,, ",
" *********** --- >>>>>>>>>> ,,, ",
" *********** --- >>>>>>>>>> ,,, ",
" *** *** *** ---        >>> ,,, ",
" *** *** *** --- >>>    >>> ,,, ",
" *** *** *** --- >>>    >>> ,,, ",
" *** *** *** --- >>>    >>> ,,, ",
" *** *** *** --- >>>>>>>>>> ,,, ",
" *** *** *** --- >>>>>>>>>> ,,, ",
" *** *** *** --- >>>>>>>>>  ,,, ",
"                                "
};
